dist/img/other-services/bg.svg

<svg width="1728" height="673" fill="none" xmlns="http://www.w3.org/2000/svg"><path fill="#FEFEFE" d="M0 0h1728v673H0z"/><path d="M0 615.549l180 44.114 354-68.736L948 673l540-102.591 240 45.14V88.229l-164-55.4-150 135.422L1254 0l-202 129.266-292-41.037-285 75.918-191-89.255L0 193v422.549z" fill="#FBF4E7"/><path d="M1728 564.988l-186 41.906-348-59.865L592 649 240 532.063 0 564.988V233.486l156-23.198L474 116l202 94.288 292-29.933 290 181.092 340-181.092 130 53.131v331.502z" fill="#FBEEDA"/><path d="M1.333 234.635l154.863-23.029.093-.013.09-.027 317.516-94.144 201.875 94.23.366-.038 291.546-29.886 290.268 181.258 340.13-181.161 128.59 52.556v329.54l-184.71 41.613-347.73-59.819-.23-.039L592.106 647.63l-351.98-116.931-238.793 32.76V234.635zM0 564.988l240-32.926L592 649l602-101.971 348 59.865 186-41.906V233.485l-130-53.13-340 181.092-290-181.092-292 29.933L474 116l-318 94.288L0 233.485v331.503z" fill="#FBDFC2"/></svg>

<svg width="1728" height="673" viewBox="0 0 1728 673" fill="none" xmlns="http://www.w3.org/2000/svg">
<rect width="1728" height="673" fill="#FEFEFE"/>
<path d="M0 615.549L180 659.663L534 590.927L948 673L1488 570.409L1728 615.549V88.2287L1564 32.8298L1414 168.251L1254 0L1052 129.266L760 88.2292L475 164.147L284 74.8923L0 193V615.549Z" fill="#FBF4E7"/>
<path d="M1728 564.988L1542 606.894L1194 547.029L592 649L240 532.063L0 564.988V233.486L156 210.288L474 116L676 210.288L968 180.355L1258 361.447L1598 180.355L1728 233.486V564.988Z" fill="#FBEEDA"/>
<path d="M1.33301 234.635L156.196 211.606L156.289 211.593L156.379 211.566L473.895 117.422L675.77 211.652L676.136 211.614L967.682 181.728L1257.95 362.986L1598.08 181.825L1726.67 234.381V563.921L1541.96 605.534L1194.23 545.715L1194 545.676L592.106 647.63L240.126 530.699L1.33301 563.459V234.635ZM0 564.988L240 532.062L592 649L1194 547.029L1542 606.894L1728 564.988V233.485L1598 180.355L1258 361.447L968 180.355L676 210.288L474 116L156 210.288L0 233.485V564.988Z" fill="#FBDFC2"/>
</svg>
